X:16
T:Of a' the Airts the Wind Can Blaw
M:4/4
L:1/4
C:Wm Marshall
R:Song
K:D
A,|"D"D>D D>D|DA,D z/B/|"D"AFE>D|"G"CB,2A,/B,/|"D"D>DDD|"D"DA,D z/B/|"Em
"
ABdF|"A7"A3 B|!
"D"ABdF|"D"AFE z/D/|"G"EF/F/ G/F/E/D/|"G"CB,2A,/B,/|"D"D>DDD|"D"DA,D z/B
/|"D"AF"A7"EF|"A7"A3 ||!
A,/G,/|"D"F,A,DA,|B,A,D z/E/|"D"FA G/F/E/D/|"G"CB,2A,/G,/|"D"F,A,DA,|B,A
,D z/E/|"D"FG A/B/c/d/|"A"A3B/c/|!
"D"d>cBA|"G"BAG>F|"G"EF/F/ G/F/E/D/|"G"CB,2A,/B,/|"D"D>DDD|"D"DA,D z/B/|
"D"AF"A7"EF|"A7"A3 ||
